!!!ONB: MCCC : IGH0172_00 : Extracted Monophonic Melody
!!!COM: Handel, George Frideric
!!!OTL: Fantasia in C
!!!SCT: nan
!!!ODT: 1703///
**kern
*staff1
=1
*clefG2
*k[]
*C:
*M4/4
8g
8cc
16dd
16ee
8ff
8g
4.cc
=2
8g
8a
16b
16cc
16dd
16ee
16ff
16gg
8b
16a
16b
8g
=3
16a
16b
16cc
16gg
16ee
16gg
16cc
16gg
16b-
16gg
4.a
=4
16cc
16ee
16dd
16aa
16ff
16aa
16dd
16aa
16cc
16aa
4.b
=5
16dd
16ff
16ee
16bb
16gg
16bb
16ee
16bb
16cc
16aa
16dd
16aa
16ff
16aa
16dd
16aa
=6
16b
16gg
16cc
16gg
16ee
16gg
16cc
16gg
16a
16ff
16b
16ff
16dd
16ff
16b
16ff
=7
16g
16ee
16a
16ee
16cc
16ee
16a
16ee
16f
16dd
16g
16dd
16b
16dd
16g
16dd
=8
16e
16cc
16f
16cc
16e
16cc
16f
16cc
16g
16cc
16a
16cc
16g
16cc
16f
16cc
=9
16e
16cc
16f
16cc
16e
16cc
16f
16cc
16g
16cc
16a
16cc
16g
16cc
16a
16cc
=10
16b
16dd
16cc
16dd
16b
16dd
16cc
16ee
16dd
16ff
16ee
16ff
16dd
16ff
16ee
16gg
=11
16ff#
16aa
16gg
16aa
16ff#
8.aa
8.gg
16aa
16ff#
16aa
8gg[
=12
8.gg]
16aa
16ff#
8.aa
8.gg
16a
16gg
16a
16ff#
16a
=13
16ff#
16a
16ff#
16g
16ff#
16g
16ee
16g
16ee
16g
16ee
16f#
16ee
16f#
16dd
16f#
=14
16dd
16f#
16dd
16e
16dd
16e
16cc
16e
16cc
16e
16cc
16d
16cc
16d
24b
24a
24g
=15
24cc
24b
24a
24dd
24cc
24b
24ee
24dd
24cc
24cc
24b
24a
24b
24a
24g
16a
16d
16f#
16a
16dd
16d
=16
16cc
16d
16b
16d
16g
16b
16cc
16d
16b
16d
16a
16d
16f#
16a
16dd
16d
=17
16cc
16d
16b
16d
16g
16b
16cc
16d
16b
16d
4a
8b
=18
8a
4g
8a
8g
4f#
8b
=19
8a
4g
8a
4g
4r
=20
16g
16d
16e
16c
16e
16c
16a
16e
16a
16e
16f#
16d
16f#
16d
16b
16f#
=21
16b
16f#
16g
16e
16g
16e
16cc
16g
16cc
16g
16a
16cc
16b
16a
32b
32a
32b
32a
=22
32b
32a
32g
32a
16g
16b
16a
16g
16f#
16e
16d
16c
16B
16g
16B
16g
16B
16g
=23
2r
4r
4g
=24
8g
8cc
16dd
16ee
8ff
8g
4.cc
=25
8g
8a
16b
16cc
16dd
16ee
16ff
16gg
8b
16a
16b
8g
=26
16a
16b
16cc
16gg
16ee
16gg
16cc
16gg
16b-
16gg
4.a
=27
16cc
16ee
16dd
16aa
16ff
16aa
16dd
16aa
16cc
16aa
4.b
=28
16dd
16ff
16ee
16bb
16gg
16bb
16ee
16bb
16cc
16aa
16dd
16aa
16ff
16aa
16dd
16aa
=29
16b
16gg
16cc
16gg
16ee
16gg
16cc
16gg
16a
16ff
16b
16ff
16dd
16ff
16b
16ff
=30
16g
16ee
16a
16ee
16cc
16ee
16a
16ee
16f
16dd
16g
16dd
16b
16dd
16g
16dd
=31
16e
16cc
16f
16cc
16e
16cc
16f
16cc
16g
16cc
16a
16cc
16g
16cc
16f
16cc
=32
16e
16cc
16f
16cc
16e
16cc
16f
16cc
16g
16cc
16a
16cc
16g
16cc
16a
16cc
=33
16b
16dd
16cc
16dd
16b
16dd
16cc
16ee
16dd
16ff
16ee
16ff
16dd
16ff
16ee
16gg
=34
16ff#
16aa
16gg
16aa
16ff#
8.aa
8.gg
16aa
16ff#
16aa
8gg[
=35
8.gg]
16aa
16ff#
8.aa
8.gg
16a
16gg
16a
16ff#
16a
=36
16ff#
16a
16ff#
16g
16ff#
16g
16ee
16g
16ee
16g
16ee
16f#
16ee
16f#
16dd
16f#
=37
16dd
16f#
16dd
16e
16dd
16e
16cc
16e
16cc
16e
16cc
16d
16cc
16d
24b
24a
24g
=38
24cc
24b
24a
24dd
24cc
24b
24ee
24dd
24cc
24cc
24b
24a
24b
24a
24g
16a
16d
16f#
16a
16dd
16d
=39
16cc
16d
16b
16d
16g
16b
16cc
16d
16b
16d
16a
16d
16f#
16a
16dd
16d
=40
16cc
16d
16b
16d
16g
16b
16cc
16d
16b
16d
4a
8b
=41
8a
4g
8a
8g
4f#
8b
=42
8a
4g
8a
4g
4r
=43
16g
16d
16e
16c
16e
16c
16a
16e
16a
16e
16f#
16d
16f#
16d
16b
16f#
=44
16b
16f#
16g
16e
16g
16e
16cc
16g
16cc
16g
16a
16cc
16b
16a
32b
32a
32b
32a
=45
32b
32a
32g
32a
16g
16b
16a
16g
16f#
16e
16d
16c
16B
16g
16B
16g
16B
16g
=46
2r
4r
4g
=47
8d
8g
16b
16cc
8dd
8d
4.g
=48
8d
8e
16f#
16g
16a
16b
16cc
16dd
8f#
16e
16f#
8d
=49
16e
16f#
16g
16dd
16b
16dd
16g
16dd
16f
16dd
4.e
=50
16g
16b
16a
16ee
16cc
16ee
16a
16ee
16g
16ee
4.f#
=51
16a
16cc
16b
16ff#
16dd
16ff#
16b
16ff#
16g
16ee
16a
16ee
16cc
16ee
16a
16ee
=52
16f#
16dd
16g
16dd
16f#
16dd
16g
16dd
16a
16dd
16b
16dd
16a
16dd
16g
16dd
=53
16f#
16dd
16g
16dd
16f#
16dd
16g
16dd
16a
16dd
16b
16dd
16a
16dd
16g
16dd
=54
16a
16dd
8b
8a
8g
8f#
4.g
=55
8a
8b
8a
8g
8f#
4.g
=56
16g#
16ee
16a
16ee
16g#
16ee
16a
16ee
16b
16ee
16cc
16ee
16b
16ee
16a
16ee
=57
16g#
16ee
16a
16ee
16g#
16ee
16a
16ee
16b
16ee
16cc
16ee
16b
16ee
16a
16ee
=58
16b
16ee
8cc
8b
16a
16g#
4a[
4a]
=59
8b
8cc
8b
16a
16g#
4a[
4a]
=60
8b
16cc
16a
16g#
16a
16cc#
16g
16f#
16g
16f#
16dd
16a
16dd
16f#
16dd
=61
16a
16dd
16b-
16g
16f#
16g
16b
16f
16e
16f
16e
16cc
16g
16cc
16e
16cc
=62
16g
16cc
16a
16f#
16e
16f#
16b-
16e
16d#
16e
16e-
16b
16f#
16b
16e-
16b
=63
16f#
16b
16g
16e
16d#
16e
16g#
16d
16c
16d
16c
16a
16e
16a
16c
16a
=64
16e
16a
16B
16a
16g#
16f#
16g#
16e
16g#
16e
16a
16b
16a
16g#
16a
16e
=65
16a
16e
16b
16cc
16b
16a
16b
16e
16b
16e
16cc
16dd
16cc
16b
16cc
16e
=66
16cc
16e
16dd
16ee
16dd
16cc
16dd
16ee
16dd
16cc
16dd
16cc
16b
16a
16g#
16f#
=67
16e
16d
16c
16d
16c
16B
16c
16d
16c
16B
8c
8r
16r
16e
=68
16f#
16g#
16a
16e
16f#
16g#
16a
16b
16cc
16dd
16ee
16e
16dd
16e
16ee
16e
=69
16cc
16e
16dd
16e
16cc
16e
16dd
16e
16b
16e
16cc
16e
16b
16e
16cc
16e
=70
16a
16e
16b
16a
16g#
16f#
16e
16d
16c
16B
16c
16a
16c
16a
16B
16a
=71
16B
16g#
4.a
8e
8a
16cc
16dd
8ee
=72
8e
4.a
8e
16f
16a
16dd
16cc
16b
16dd
=73
16gg
16ff
16ee
16dd
4cc
16b
16gg
16cc
16gg
16b
16gg
16cc
16gg
=74
16dd
16gg
16ee
16gg
16dd
16gg
16cc
16gg
16b
16gg
16cc
16gg
16b
16gg
16cc
16gg
=75
16dd
16gg
16ee
16gg
16dd
16gg
16cc
16gg
16dd
16gg
8ee
8dd
8cc
=76
4b
4cc
8dd
8ee
8dd
8cc
=77
4b
4cc
8dd
24ee
24dd
24cc
24ff
24ee
24dd
24gg
24ff
24ee
=78
24aa
24gg
24ff
24ff
24ee
24dd
24ee
24dd
24cc
24ff
24ee
24dd
24ee
24dd
24cc
16dd
16g
16b
16dd
16gg
16g
=79
16ff
16g
16ee
16g
16cc
16ee
16ff
16g
16ee
16g
16dd
16g
16b
16dd
16gg
16g
=80
16ff
16g
16ee
16g
16cc
16ee
16ff
16g
16ee
16g
4dd
8ee
=81
8dd
4cc
8dd
8cc
4b
8ee
=82
8dd
4cc
8dd
8cc
4.b
=83
16cc
16g
16a
16f
16a
16f
16dd
16a
16dd
16a
16b
16g
16b
16g
16ee
16b
=84
16ee
16b
16cc
16a
16cc
16a
16ff
16cc
16ff
16cc
16dd
16ff
16ee
16cc
32ee
32dd
32ee
32dd
=85
32ee
32dd
32cc
32dd
16cc
16ee
16dd
16cc
16b
16a
16g
16f
16e
16cc
16e
16cc
16e
16cc
=86
2r
4r
4cc
=87
8d
8g
16b
16cc
8dd
8d
4.g
=88
8d
8e
16f#
16g
16a
16b
16cc
16dd
8f#
16e
16f#
8d
=89
16e
16f#
16g
16dd
16b
16dd
16g
16dd
16f
16dd
4.e
=90
16g
16b
16a
16ee
16cc
16ee
16a
16ee
16g
16ee
4.f#
=91
16a
16cc
16b
16ff#
16dd
16ff#
16b
16ff#
16g
16ee
16a
16ee
16cc
16ee
16a
16ee
=92
16f#
16dd
16g
16dd
16f#
16dd
16g
16dd
16a
16dd
16b
16dd
16a
16dd
16g
16dd
=93
16f#
16dd
16g
16dd
16f#
16dd
16g
16dd
16a
16dd
16b
16dd
16a
16dd
16g
16dd
=94
16a
16dd
8b
8a
8g
8f#
4.g
=95
8a
8b
8a
8g
8f#
4.g
=96
16g#
16ee
16a
16ee
16g#
16ee
16a
16ee
16b
16ee
16cc
16ee
16b
16ee
16a
16ee
=97
16g#
16ee
16a
16ee
16g#
16ee
16a
16ee
16b
16ee
16cc
16ee
16b
16ee
16a
16ee
=98
16b
16ee
8cc
8b
16a
16g#
4a[
4a]
=99
8b
8cc
8b
16a
16g#
4a[
4a]
=100
8b
16cc
16a
16g#
16a
16cc#
16g
16f#
16g
16f#
16dd
16a
16dd
16f#
16dd
=101
16a
16dd
16b-
16g
16f#
16g
16b
16f
16e
16f
16e
16cc
16g
16cc
16e
16cc
=102
16g
16cc
16a
16f#
16e
16f#
16b-
16e
16d#
16e
16e-
16b
16f#
16b
16e-
16b
=103
16f#
16b
16g
16e
16d#
16e
16g#
16d
16c
16d
16c
16a
16e
16a
16c
16a
=104
16e
16a
16B
16a
16g#
16f#
16g#
16e
16g#
16e
16a
16b
16a
16g#
16a
16e
=105
16a
16e
16b
16cc
16b
16a
16b
16e
16b
16e
16cc
16dd
16cc
16b
16cc
16e
=106
16cc
16e
16dd
16ee
16dd
16cc
16dd
16ee
16dd
16cc
16dd
16cc
16b
16a
16g#
16f#
=107
16e
16d
16c
16d
16c
16B
16c
16d
16c
16B
8c
8r
16r
16e
=108
16f#
16g#
16a
16e
16f#
16g#
16a
16b
16cc
16dd
16ee
16e
16dd
16e
16ee
16e
=109
16cc
16e
16dd
16e
16cc
16e
16dd
16e
16b
16e
16cc
16e
16b
16e
16cc
16e
=110
16a
16e
16b
16a
16g#
16f#
16e
16d
16c
16B
16c
16a
16c
16a
16B
16a
=111
16B
16g#
4.a
8e
8a
16cc
16dd
8ee
=112
8e
4.a
8e
16f
16a
16dd
16cc
16b
16dd
=113
16gg
16ff
16ee
16dd
4cc
16b
16gg
16cc
16gg
16b
16gg
16cc
16gg
=114
16dd
16gg
16ee
16gg
16dd
16gg
16cc
16gg
16b
16gg
16cc
16gg
16b
16gg
16cc
16gg
=115
16dd
16gg
16ee
16gg
16dd
16gg
16cc
16gg
16dd
16gg
8ee
8dd
8cc
=116
4b
4cc
8dd
8ee
8dd
8cc
=117
4b
4cc
8dd
24ee
24dd
24cc
24ff
24ee
24dd
24gg
24ff
24ee
=118
24aa
24gg
24ff
24ff
24ee
24dd
24ee
24dd
24cc
24ff
24ee
24dd
24ee
24dd
24cc
16dd
16g
16b
16dd
16gg
16g
=119
16ff
16g
16ee
16g
16cc
16ee
16ff
16g
16ee
16g
16dd
16g
16b
16dd
16gg
16g
=120
16ff
16g
16ee
16g
16cc
16ee
16ff
16g
16ee
16g
4dd
8ee
=121
8dd
4cc
8dd
8cc
4b
8ee
=122
8dd
4cc
8dd
8cc
4.b
=123
16cc
16g
16a
16f
16a
16f
16dd
16a
16dd
16a
16b
16g
16b
16g
16ee
16b
=124
16ee
16b
16cc
16a
16cc
16a
16ff
16cc
16ff
16cc
16dd
16ff
16ee
16cc
32ee
32dd
32ee
32dd
=125
32ee
32dd
32cc
32dd
16cc
16ee
16dd
16cc
16b
16a
16g
16f
16e
16cc
16e
16cc
16e
16cc
=126
2r
2cc
=127
1cc[
=128
4cc]
4r
2r
==
*-
